X:3555
T:Lasses Trust in Providence
O:england
M:4/4
L:1/8
Q:1/4=220
C:Trad Shetland
R:reel
B:Fiddler's Fake Book
K:D
"D"d2 de fdef|"G"d2 fd "A"edBA|"D"d2 de fdef|[1"A"dBAF E2 A2:|[2"A"dBAF
E2 FG||
"D"A2 AB ADFA|"G"d2 d2 BABd|"D"A2 AB ADFA|[1"A"GFEC "D"D3 F:|[2"A"GFEC
"D"D2 z2||
